images/clock.svg

<svg xmlns="http://www.w3.org/2000/svg" width="22" height="22">
    <path fill="#FCE6B3" fill-rule="evenodd" d="M11.236 21.318c-5.778 0-10.478-4.7-10.478-10.477C.758 5.063 5.458.363 11.236.363a1.28 1.28 0 0 1 1.278 1.278c0 .704-.573 1.277-1.278 1.277-4.369 0-7.922 3.554-7.922 7.923 0 4.368 3.553 7.922 7.922 7.922 4.368 0 7.922-3.554 7.922-7.922a1.28 1.28 0 0 1 2.556 0c0 5.777-4.701 10.477-10.478 10.477zm5.635-10.477a1.23 1.23 0 0 1-1.229 1.228h-3.818a1.818 1.818 0 0 1-1.817-1.816V6.435c0-.679.551-1.23 1.229-1.23a1.23 1.23 0 0 1 1.228 1.23v3.177h3.178a1.23 1.23 0 0 1 1.229 1.229zm3.341-2.402a1.28 1.28 0 0 1-1.675-.679 7.989 7.989 0 0 0-4.22-4.22 1.272 1.272 0 0 1-.686-.698 1.274 1.274 0 0 1 .704-1.663 1.27 1.27 0 0 1 .978.007 10.563 10.563 0 0 1 5.578 5.579 1.278 1.278 0 0 1-.679 1.674z"/>
</svg>

<svg 
 xmlns="http://www.w3.org/2000/svg"
 xmlns:xlink="http://www.w3.org/1999/xlink"
 width="7.761mm" height="7.761mm">
<path fill-rule="evenodd"  fill="rgb(252, 230, 179)"
 d="M11.236,21.319 C5.458,21.319 0.758,16.618 0.758,10.841 C0.758,5.063 5.458,0.363 11.236,0.363 C11.941,0.363 12.514,0.936 12.514,1.641 C12.514,2.345 11.941,2.919 11.236,2.919 C6.868,2.919 3.314,6.472 3.314,10.841 C3.314,15.209 6.868,18.763 11.236,18.763 C15.604,18.763 19.158,15.209 19.158,10.841 C19.158,10.136 19.731,9.563 20.436,9.563 C21.141,9.563 21.714,10.136 21.714,10.841 C21.714,16.618 17.013,21.319 11.236,21.319 ZM16.872,10.841 C16.872,11.518 16.320,12.069 15.642,12.069 L11.824,12.069 C10.822,12.069 10.008,11.255 10.008,10.253 L10.008,6.435 C10.008,5.756 10.559,5.205 11.236,5.205 C11.913,5.205 12.464,5.756 12.464,6.435 L12.464,9.612 L15.642,9.612 C16.320,9.612 16.872,10.164 16.872,10.841 ZM20.212,8.439 C19.564,8.713 18.812,8.409 18.537,7.760 C18.474,7.610 18.406,7.464 18.335,7.319 C17.568,5.778 16.299,4.508 14.758,3.742 C14.613,3.670 14.466,3.603 14.318,3.540 C14.003,3.406 13.759,3.159 13.631,2.843 C13.501,2.527 13.504,2.180 13.638,1.865 C13.772,1.552 14.019,1.307 14.335,1.179 C14.652,1.051 14.999,1.053 15.313,1.186 C15.510,1.269 15.704,1.358 15.896,1.454 C17.931,2.465 19.610,4.145 20.623,6.181 C20.718,6.373 20.808,6.568 20.891,6.765 C20.959,6.925 20.992,7.092 20.992,7.263 C20.992,7.427 20.961,7.588 20.898,7.743 C20.770,8.059 20.526,8.306 20.212,8.439 Z"/>
</svg>
